openframe-frontend-core/src/components/icons-v2/brand-logos/behance.svg

<svg width="24" height="24" viewBox="0 0 24 24" fill="none" xmlns="http://www.w3.org/2000/svg">
<path d="M18.0005 8.875C20.8307 8.87526 23.1245 11.1702 23.1245 14.0005C23.1242 14.6216 22.6207 15.1255 21.9995 15.1255H15.1309C15.1966 16.655 16.4548 17.875 18.0005 17.875C19.074 17.8748 20.0328 17.289 20.5259 16.4365C20.837 15.8987 21.5261 15.7153 22.064 16.0264C22.6012 16.3376 22.7848 17.0254 22.4741 17.563C21.5842 19.1015 19.8877 20.1248 18.0005 20.125C15.17 20.125 12.875 17.83 12.875 14.9995V14.0005C12.875 11.17 15.17 8.875 18.0005 8.875ZM18.0005 11.125C16.8118 11.125 15.7913 11.8466 15.3535 12.8755H20.646C20.2083 11.8468 19.1889 11.1252 18.0005 11.125ZM19.5005 5.875L19.6147 5.88086C20.1822 5.93835 20.6255 6.41742 20.6255 7C20.6255 7.58258 20.1822 8.06165 19.6147 8.11914L19.5005 8.125H16.5005C15.8792 8.125 15.3755 7.62132 15.3755 7C15.3755 6.37868 15.8792 5.875 16.5005 5.875H19.5005Z" fill="#888888"/>
<path d="M9.875 15.5C9.875 14.1885 8.81194 13.1258 7.50049 13.1255H3.125V17.8745H7.50049C8.81194 17.8742 9.875 16.8115 9.875 15.5ZM9.875 8.49951C9.87474 7.18822 8.81178 6.12526 7.50049 6.125H3.125V10.8755H7.50049L7.74219 10.8623C8.94008 10.741 9.875 9.72941 9.875 8.49951ZM12.125 8.49951C12.125 9.89959 11.4995 11.1509 10.5166 11.999C11.5 12.8472 12.125 14.0995 12.125 15.5C12.125 18.0542 10.0546 20.1242 7.50049 20.1245H3.00049C1.82705 20.1245 0.875264 19.1739 0.875 18.0005V6.00049C0.875 4.82688 1.82688 3.875 3.00049 3.875H7.50049C10.0544 3.87526 12.1247 5.94558 12.125 8.49951Z" fill="#888888"/>
</svg>

<svg xmlns="http://www.w3.org/2000/svg" width="24" height="24" fill="none" viewBox="0 0 24 24">
  <path fill="#888" d="M18 8.875a5.125 5.125 0 0 1 5.125 5.126c0 .62-.504 1.125-1.125 1.125h-6.87A2.873 2.873 0 0 0 18 17.875a2.931 2.931 0 0 0 2.526-1.439 1.126 1.126 0 0 1 1.948 1.127A5.182 5.182 0 0 1 18 20.125a5.126 5.126 0 0 1-5.125-5.126v-.998A5.126 5.126 0 0 1 18 8.875Zm0 2.25a2.876 2.876 0 0 0-2.646 1.75h5.292A2.875 2.875 0 0 0 18 11.126Zm1.5-5.25.115.006a1.125 1.125 0 0 1 0 2.238l-.114.006h-3a1.125 1.125 0 0 1 0-2.25h3ZM9.875 15.5A2.375 2.375 0 0 0 7.5 13.126H3.125v4.749H7.5A2.375 2.375 0 0 0 9.875 15.5Zm0-7A2.375 2.375 0 0 0 7.5 6.125H3.125v4.75H7.5l.242-.013A2.375 2.375 0 0 0 9.875 8.5Zm2.25 0a4.61 4.61 0 0 1-1.608 3.499 4.611 4.611 0 0 1 1.608 3.501A4.625 4.625 0 0 1 7.5 20.125H3A2.125 2.125 0 0 1 .875 18V6c0-1.173.952-2.125 2.125-2.125h4.5A4.625 4.625 0 0 1 12.125 8.5Z"/>
</svg>
